packages/elvis-assets-icons/icons/svg/src/search-color.svg

<svg width="24" height="24" viewBox="0 0 24 24" fill="none" xmlns="http://www.w3.org/2000/svg">
<g clip-path="url(#clip0)">
<path fill-rule="evenodd" clip-rule="evenodd" d="M2.1623 13.0637C0.36655 8.8383 2.33616 3.95721 6.56155 2.16146C10.7869 0.365719 15.668 2.33533 17.4638 6.56072C18.8201 9.75217 18.0284 13.3177 15.739 15.6453C15.7224 15.6592 15.7063 15.674 15.6907 15.6896C15.675 15.7054 15.6601 15.7216 15.646 15.7384C14.9226 16.4508 14.0556 17.0417 13.0645 17.4629C8.83914 19.2587 3.95804 17.2891 2.1623 13.0637ZM16.2032 17.2629C15.4577 17.9019 14.6029 18.439 13.6512 18.8434C8.6634 20.9632 2.90157 18.6382 0.781795 13.6504C-1.33798 8.66257 0.987033 2.90073 5.97485 0.780963C10.9627 -1.33881 16.7245 0.986203 18.8443 5.97402C20.3518 9.52133 19.6113 13.4601 17.2635 16.2019L23.7804 22.7197C24.0732 23.0126 24.0732 23.4875 23.7803 23.7803C23.4874 24.0732 23.0125 24.0732 22.7196 23.7803L16.2032 17.2629Z" fill="black"/>
<path fill-rule="evenodd" clip-rule="evenodd" d="M4.25 9C4.66421 9 5 9.33579 5 9.75C5 12.6495 7.35051 15 10.25 15C10.6642 15 11 15.3358 11 15.75C11 16.1642 10.6642 16.5 10.25 16.5C6.52208 16.5 3.5 13.4779 3.5 9.75C3.5 9.33579 3.83579 9 4.25 9Z" fill="#29D305"/>
</g>
<defs>
<clipPath id="clip0">
<rect width="24" height="24" fill="white"/>
</clipPath>
</defs>
</svg>

<svg width="24" height="24" fill="none" xmlns="http://www.w3.org/2000/svg"><g clip-path="url(#clip0)" fill-rule="evenodd" clip-rule="evenodd"><path d="M2.162 13.064A8.313 8.313 0 1117.464 6.56a8.313 8.313 0 01-15.302 6.503zm14.041 4.199a9.807 9.807 0 01-2.552 1.58c-4.988 2.12-10.75-.205-12.87-5.193C-1.337 8.663.988 2.9 5.976.781c4.988-2.12 10.75.205 12.87 5.193a9.813 9.813 0 01-1.581 10.228l6.516 6.518a.75.75 0 01-1.06 1.06l-6.517-6.517z" fill="#000"/><path d="M4.25 9a.75.75 0 01.75.75C5 12.65 7.35 15 10.25 15a.75.75 0 010 1.5A6.75 6.75 0 013.5 9.75.75.75 0 014.25 9z" fill="#29D305"/></g><defs><clipPath id="clip0"><path fill="#fff" d="M0 0h24v24H0z"/></clipPath></defs></svg>
